source/images/space_invaders.svg

<?xml version="1.0" encoding="UTF-8" standalone="no"?>
<svg version="1.1" viewBox="0 0 118 8" xmlns:svg="http://www.w3.org/2000/svg" xmlns="http://www.w3.org/2000/svg" xmlns:xlink="http://www.w3.org/1999/xlink">
  <path fill="#fff" d="M0,2h1v-1h3v-1h4v1h3v1h1v3h-2v1h1v1h-1v1h-2v-1h1v-1h-2v1h-2v-1h-2v1h1v1h-2v-1h-1v-1h1v-1h-2v-1h9v-1h-2v2h-2v1h2v-2h-2v-1h-2v1h-3v-2"/>
  <path fill="#fff" d="M13,2h1v-1h3v-1h4v1h3v1h1v3h-3v1h1v1h2v1h-2v-1h-2v-1h-1v1h-2v-1h-1v1h-2v1h-2v-1h2v-1h1v-1h-3v-1h9v-1h-2v2h-2v1h2v-2h-2v-1h-2v1h-3v-2"/>
  <path fill="#fff" d="M26,7v-3h1v-1h1v-1h1v-2h-1v1h2v1h3v-1h2v-1h-1v2h1v1h1v1h1v3h-1v-1h-1v1h-3v1h2v-2h-5v2h2v-1h-3v-1h-1v1h-1v-3h8v-1h-1v1h-3v-1h-1v1h-2"/>
  <path fill="#fff" d="M38,5v-1h8v-1h-1v1h-3v-1h-1v1h-3v-3h1v2h1v-1h1v-2h-1v1h2v1h3v-1h2v-1h-1v2h1v1h1v-2h1v4h-1v1h-1v2h1v-1h-2v-1h-5v1h-2v1h1v-2h-1v-1h-1"/>
  <path fill="#fff" d="M50,5v-1h6v-1h-1v1h-2v-1h-1v1h-2v-1h1v-1h1v-1h1v-1h2v1h1v1h1v1h1v2h-2v3h-1v-1h3v1h-1v-2h-4v1h2v-2h-2v1h-2v2h-1v-1h3v1h-1v-3h-2"/>
  <path fill="#fff" d="M59,5v-1h6v-1h-1v1h-2v-1h-1v1h-2v-1h1v-1h1v-1h1v-1h2v1h1v1h1v1h1v2h-1v3h-1v-1h2v-1h-2v-1h-1v1h-2v-1h-1v1h-2v1h2v1h-1v-3h-1"/>
  <path fill="#cc3630" d="M68,5v-1h13v-1h-1v1h-2v-1h-1v1h-2v-1h-1v1h-2v-1h-1v1h-2v-1h1v-1h1v-1h2v-1h6v1h2v1h1v1h1v1h1v1h-2v1h-1v1h-1v-1h-1v-1h-2v1h-2v-1h-2v1h-1v1h-1v-1h-1v-1h-2"/>
  <path fill="#cc3630" d="M85,0v4h10v-1h1v-3h-1v2h-1v-2h-1v3h1v1h-4v-1h1v-1h1v-1h-1v-1h-1v1h-1v-1h-1v1h-1v1h1v1h1v1h-3v-4h-1"/>
  <path fill="#fff" d=" M97,3h2v1h-2v-1M101,2v1h-1v-2h-2v-1h1v2h2M103,1v1h-1v-2h-1v1h2M104,2v-1h2v-1h-1v2h-1M106,2v1h1v-2h2v-1h-1v2h-2M108,3h2v1h-2v-1M106,4h1v2h2v1h-1v-2h-2v-1M104,5h1v2h1v-1h-2v-1M103,5h-1v2h-1v-1h2v-1M101,4h-1v2h-2v1h1v-2h2v-1" />
  <path fill="#fff" d="M112,0v3h2v1h-2v3h1v-1h-2v-1h2v-3h-2v-1h2v-1h-1" />
  <path fill="#fff" d="M117,0v7h-1v-5h-1v-1h3v1h-2v-2h1" />
</svg>

<svg viewBox="0 0 118 8" xmlns="http://www.w3.org/2000/svg"><path fill="#fff" d="M0 2h1V1h3V0h4v1h3v1h1v3h-2v1h1v1h-1v1H8V7h1V6H7v1H5V6H3v1h1v1H2V7H1V6h1V5H0V4h9V3H7v2H5v1h2V4H5V3H3v1H0V2M13 2h1V1h3V0h4v1h3v1h1v3h-3v1h1v1h2v1h-2V7h-2V6h-1v1h-2V6h-1v1h-2v1h-2V7h2V6h1V5h-3V4h9V3h-2v2h-2v1h2V4h-2V3h-2v1h-3V2M26 7V4h1V3h1V2h1V0h-1v1h2v1h3V1h2V0h-1v2h1v1h1v1h1v3h-1V6h-1v1h-3v1h2V6h-5v2h2V7h-3V6h-1v1h-1V4h8V3h-1v1h-3V3h-1v1h-2M38 5V4h8V3h-1v1h-3V3h-1v1h-3V1h1v2h1V2h1V0h-1v1h2v1h3V1h2V0h-1v2h1v1h1V1h1v4h-1v1h-1v2h1V7h-2V6h-5v1h-2v1h1V6h-1V5h-1M50 5V4h6V3h-1v1h-2V3h-1v1h-2V3h1V2h1V1h1V0h2v1h1v1h1v1h1v2h-2v3h-1V7h3v1h-1V6h-4v1h2V5h-2v1h-2v2h-1V7h3v1h-1V5h-2M59 5V4h6V3h-1v1h-2V3h-1v1h-2V3h1V2h1V1h1V0h2v1h1v1h1v1h1v2h-1v3h-1V7h2V6h-2V5h-1v1h-2V5h-1v1h-2v1h2v1h-1V5h-1"/><path fill="#cc3630" d="M68 5V4h13V3h-1v1h-2V3h-1v1h-2V3h-1v1h-2V3h-1v1h-2V3h1V2h1V1h2V0h6v1h2v1h1v1h1v1h1v1h-2v1h-1v1h-1V6h-1V5h-2v1h-2V5h-2v1h-1v1h-1V6h-1V5h-2M85 0v4h10V3h1V0h-1v2h-1V0h-1v3h1v1h-4V3h1V2h1V1h-1V0h-1v1h-1V0h-1v1h-1v1h1v1h1v1h-3V0h-1"/><path fill="#fff" d="M97 3h2v1h-2V3m4-1v1h-1V1h-2V0h1v2h2m2-1v1h-1V0h-1v1h2m1 1V1h2V0h-1v2h-1m2 0v1h1V1h2V0h-1v2h-2m2 1h2v1h-2V3m-2 1h1v2h2v1h-1V5h-2V4m-2 1h1v2h1V6h-2V5m-1 0h-1v2h-1V6h2V5m-2-1h-1v2h-2v1h1V5h2V4M112 0v3h2v1h-2v3h1V6h-2V5h2V2h-2V1h2V0h-1M117 0v7h-1V2h-1V1h3v1h-2V0h1"/></svg>
